frontend/public/svg/hand gestures/tap.svg

<svg width="113" height="156" viewBox="0 0 113 156" fill="none" xmlns="http://www.w3.org/2000/svg">
<g clip-path="url(#clip0)">
<path d="M6.03989 97.8558C6.49933 98.2614 6.95874 98.667 7.4083 99.0851C11.0628 102.505 15.1787 106.75 17.9917 112.317C20.9072 118.088 24.5364 125.271 28.265 132.018C31.4312 137.747 35.2326 143.592 41.5597 147.533C49.8111 152.672 58.3238 155.247 67.0066 155.247C72.489 155.215 77.9248 154.24 83.0764 152.365C86.7886 150.98 90.2725 149.048 93.4144 146.633C101.317 140.685 106.338 131.946 108.762 119.92C110.19 112.549 111.246 105.11 111.928 97.6326C112.579 91.6554 111.981 85.6079 110.173 79.8741C108.532 74.7711 105.068 71.7276 99.8826 70.8265C96.0627 70.1642 92.9641 71.9081 90.6426 73.6166C89.8544 71.7329 88.6434 70.0566 87.1024 68.717C85.5613 67.3774 83.7321 66.4106 81.7571 65.8929C77.4995 64.6708 73.7282 65.6638 70.5489 68.8463C66.0358 62.476 62.2894 61.6923 54.9509 65.6218C54.8196 63.891 54.6944 62.1813 54.5723 60.4873C54.2652 56.2211 53.9756 52.1944 53.5516 48.1074C52.9465 42.266 52.359 37.0022 51.3003 31.8C50.6129 28.9315 49.4249 26.2069 47.7904 23.7514C46.2933 21.3413 44.3269 19.8954 42.1026 19.5692C39.7746 19.2286 37.3281 20.1218 35.029 22.1539C32.8466 24.0822 31.6267 26.7718 31.3996 30.148C31.3156 31.4074 31.2292 32.6673 31.1403 33.9279C30.7058 40.1736 30.2557 46.632 30.2472 52.9899C30.2367 60.4932 30.4845 68.146 30.724 75.5475C30.8199 78.5299 30.9173 81.5202 30.9987 84.5216C25.4421 79.7606 18.6732 77.5592 10.849 77.9773C7.83571 78.1387 3.59449 78.8863 1.55 83.501C-0.334347 87.7561 0.227426 91.6731 3.22033 95.1445C4.09693 96.1119 5.03896 97.0176 6.03989 97.8558ZM27.7391 90.1904C28.7495 91.8733 29.5174 93.69 30.0199 95.5868C30.505 97.1246 31.2061 98.772 33.4054 98.8534C35.1979 98.9191 36.3962 97.9267 37.0506 95.8179C37.259 95.1438 37.3646 94.4415 37.3637 93.736L37.3486 89.3549C37.3315 83.8325 37.3143 78.1217 37.2041 72.5061C37.1476 69.607 37.0317 66.6607 36.9208 63.8123C36.7561 59.6117 36.5852 55.2681 36.601 50.9999C36.6252 44.403 37.0211 37.7084 37.4589 30.8582C37.6315 28.1672 38.2503 25.5944 41.5517 24.9656C44.6102 27.5424 45.5996 31.1115 46.1371 35.6672C46.506 38.79 46.6622 41.9963 46.8203 45.0968C46.8971 46.6425 46.9743 48.1882 47.076 49.7319C47.6746 58.7893 48.2838 67.8467 48.9034 76.9042C49.0222 78.6599 49.9607 79.7868 51.5477 80.0776C52.2884 80.2567 53.0692 80.1557 53.7398 79.794C54.4103 79.4317 54.9232 78.8345 55.1793 78.1164C55.3493 77.7279 55.4883 77.3249 55.6222 76.935C55.7923 76.3876 56.0093 75.856 56.2702 75.3454C56.452 75.0172 56.6304 74.6798 56.8096 74.3451C57.515 72.9071 58.3658 71.5452 59.3484 70.2804C60.4445 68.9756 61.6962 68.377 62.875 68.5857C64.0695 68.8004 65.0914 69.8695 65.6795 71.5196C66.0884 72.7627 66.322 74.057 66.3752 75.3644C66.4257 76.534 66.4034 77.7062 66.3096 78.8732L66.2623 79.6949C66.1652 81.5241 67.0086 82.6484 68.7013 82.9504C69.8249 83.1505 71.3266 82.9162 72.0748 80.6689C72.1661 80.3769 72.2402 80.0802 72.2967 79.7796C72.3492 79.5322 72.3997 79.2847 72.4732 79.0438C72.6012 78.629 72.72 78.209 72.8375 77.7889C73.1092 76.7119 73.4676 75.6578 73.9093 74.6385L74.0261 74.3871C74.9562 72.3853 75.9295 70.3126 78.5266 70.5856C80.7424 70.814 83.6047 71.767 84.6555 74.9942C85.004 76.2288 85.2239 77.4955 85.3119 78.7754C85.3611 79.2486 85.411 79.7212 85.472 80.1898C85.5298 80.6263 85.5521 81.0864 85.5744 81.5307C85.5823 82.3281 85.686 83.121 85.8835 83.8935C86.0142 84.4678 86.3003 84.9955 86.7099 85.4188C87.1201 85.8415 87.6386 86.1441 88.2089 86.2924C88.8023 86.3896 89.4113 86.3226 89.9692 86.0981C90.5278 85.8737 91.0135 85.5002 91.3745 85.0191C91.7269 84.58 92.0328 84.1055 92.2868 83.6028C92.4528 83.3015 92.6235 82.9897 92.8118 82.7088C93.0416 82.3656 93.2647 82.0164 93.4885 81.6666C94.074 80.6899 94.7415 79.7658 95.4851 78.9034C96.765 77.508 98.3179 76.8425 99.7355 77.0781C100.441 77.2343 101.096 77.5664 101.638 78.0442C102.18 78.5227 102.593 79.1305 102.836 79.8111C103.932 82.2966 105.4 86.0181 105.501 89.6174C105.544 94.8517 105.293 100.085 104.747 105.291L104.544 107.683C104.354 109.56 104.065 111.426 103.682 113.273C103.475 114.361 103.262 115.488 103.091 116.603C102.201 122.444 99.7579 127.608 96.3626 133.559C94.4113 136.979 91.2163 139.863 86.8654 142.134C73.5542 149.079 59.9397 148.723 46.4015 141.077C40.5181 137.755 37.2048 132.491 34.7396 127.782C32.9609 124.384 31.2139 120.895 29.5239 117.522C27.9053 114.29 26.231 110.95 24.5311 107.69C21.4883 101.867 17.368 96.6757 12.3889 92.3905L11.754 91.8457C10.5881 90.9091 9.50799 89.8695 8.52677 88.7406C7.70766 87.7324 7.38887 86.7716 7.60481 85.9524C7.83124 85.0992 8.64038 84.3772 9.94649 83.8666C11.0874 83.4255 12.3012 83.203 13.5243 83.2103C15.0287 83.2444 16.5208 83.4899 17.9572 83.9381C22.7189 85.302 25.7379 87.231 27.7391 90.1924V90.1904Z" fill="black"/>
<path d="M12.6613 51.3733C15.424 53.9627 18.8457 55.7426 22.552 56.5183C23.0264 56.6234 23.5099 56.6814 23.9957 56.6916C24.5164 56.7411 25.0392 56.619 25.484 56.3439C25.9288 56.0687 26.2716 55.6556 26.4599 55.1676C27.1818 53.3101 25.5998 52.4109 24.4466 51.7513L24.3501 51.6962C23.7122 51.3313 23.0585 50.9913 22.4055 50.6513C21.6782 50.2726 20.9262 49.8814 20.2121 49.4614C13.4689 45.4912 10.4727 39.0328 11.7762 31.2756C14.2486 16.5605 27.1857 5.91863 41.8444 6.49883C46.9959 6.70624 51.5233 8.69169 54.5923 12.0896C56.1009 13.8214 57.2465 15.8387 57.9609 18.0217C58.6752 20.2046 58.9437 22.5088 58.7508 24.7976C58.6773 25.6375 58.5431 26.471 58.3493 27.2916C58.2482 27.7714 58.147 28.2519 58.0682 28.7356C57.6456 31.3157 58.5193 33.133 60.3465 33.469C60.7512 33.5505 61.1685 33.5474 61.572 33.4598C61.9755 33.3723 62.3562 33.2022 62.6908 32.9604C63.1834 32.5585 63.5906 32.062 63.8881 31.5002C64.1856 30.9383 64.3674 30.3226 64.423 29.6892C64.547 28.6795 64.6127 27.6637 64.6197 26.6464C64.6322 26.1955 64.6449 25.7446 64.6672 25.2957C64.9873 19.3941 62.9599 13.6055 59.0277 9.19307C56.873 6.77713 54.2593 4.81402 51.3385 3.41802C48.4177 2.02202 45.2482 1.22104 42.0149 1.06173C24.8444 -0.00941241 8.91063 12.2726 5.71951 29.0335C3.96249 38.2537 6.2332 45.5614 12.6613 51.3733Z" fill="black"/>
</g>
<defs>
<clipPath id="clip0">
<rect width="112.234" height="154.896" fill="white" transform="translate(0.40332 0.602173)"/>
</clipPath>
</defs>
</svg>

<svg xmlns="http://www.w3.org/2000/svg" width="113" height="156" fill="none" viewBox="0 0 113 156"><g fill="#000" clip-path="url(#a)"><path d="M6.04 97.856c.46.405.919.811 1.368 1.23 3.655 3.419 7.77 7.664 10.584 13.231 2.915 5.771 6.544 12.954 10.273 19.701 3.166 5.729 6.968 11.574 13.295 15.515 8.251 5.139 16.764 7.714 25.447 7.714a47.8 47.8 0 0 0 16.07-2.882 39.8 39.8 0 0 0 10.337-5.732c7.903-5.948 12.924-14.687 15.348-26.713a224 224 0 0 0 3.166-22.287 43.4 43.4 0 0 0-1.755-17.759c-1.641-5.103-5.105-8.146-10.29-9.047-3.82-.663-6.919 1.081-9.24 2.79a13.29 13.29 0 0 0-8.886-7.724c-4.258-1.222-8.029-.23-11.208 2.953-4.513-6.37-8.26-7.154-15.598-3.224q-.196-2.594-.379-5.135c-.307-4.266-.596-8.293-1.02-12.38-.605-5.841-1.193-11.105-2.252-16.307a25.1 25.1 0 0 0-3.51-8.049c-1.497-2.41-3.463-3.856-5.687-4.182-2.328-.34-4.775.553-7.074 2.585-2.182 1.928-3.402 4.618-3.63 7.994q-.125 1.89-.259 3.78c-.434 6.246-.884 12.704-.893 19.062-.01 7.503.238 15.156.477 22.557.096 2.983.193 5.973.275 8.975-5.557-4.761-12.326-6.963-20.15-6.545-3.013.162-7.255.91-9.299 5.524-1.884 4.255-1.323 8.172 1.67 11.643a28.5 28.5 0 0 0 2.82 2.712m21.7-7.666a21 21 0 0 1 2.28 5.397c.485 1.538 1.186 3.185 3.385 3.266 1.793.066 2.991-.926 3.646-3.035a7 7 0 0 0 .313-2.082l-.015-4.381c-.017-5.523-.035-11.233-.145-16.849-.056-2.899-.172-5.845-.283-8.694-.165-4.2-.336-8.544-.32-12.812.024-6.597.42-13.292.858-20.142.172-2.69.791-5.264 4.093-5.892 3.058 2.576 4.048 6.145 4.585 10.701.369 3.123.525 6.33.683 9.43.077 1.545.154 3.091.256 4.635q.898 13.586 1.827 27.172c.12 1.756 1.058 2.883 2.645 3.174a3.09 3.09 0 0 0 3.631-1.962c.17-.388.31-.791.443-1.181q.256-.822.648-1.59c.182-.328.36-.665.54-1a23.5 23.5 0 0 1 2.538-4.065c1.096-1.304 2.348-1.903 3.527-1.694 1.195.214 2.216 1.284 2.805 2.934.408 1.243.642 2.537.695 3.844q.075 1.757-.065 3.51l-.048.82c-.097 1.83.747 2.954 2.44 3.256 1.123.2 2.625-.034 3.373-2.281q.136-.438.222-.89c.052-.247.103-.494.176-.735q.19-.624.365-1.255c.271-1.077.63-2.131 1.071-3.15l.117-.252c.93-2.002 1.904-4.074 4.5-3.801 2.216.228 5.079 1.181 6.13 4.408.348 1.235.568 2.502.656 3.781.05.474.099.946.16 1.415.058.436.08.896.102 1.34.008.798.112 1.591.31 2.364a3.22 3.22 0 0 0 2.325 2.399 3.29 3.29 0 0 0 3.166-1.274q.53-.66.912-1.416c.166-.301.337-.613.525-.894.23-.343.453-.693.677-1.042q.879-1.468 1.996-2.764c1.28-1.395 2.833-2.06 4.25-1.825a4.27 4.27 0 0 1 3.101 2.733c1.096 2.486 2.564 6.207 2.665 9.806a139 139 0 0 1-.754 15.674l-.203 2.392a55 55 0 0 1-.862 5.59 95 95 0 0 0-.591 3.33c-.89 5.841-3.333 11.005-6.728 16.956-1.952 3.42-5.147 6.304-9.498 8.575-13.31 6.945-26.925 6.589-40.463-1.057-5.884-3.322-9.197-8.586-11.662-13.295-1.78-3.398-3.526-6.887-5.216-10.26-1.619-3.232-3.293-6.572-4.993-9.832a51.9 51.9 0 0 0-12.142-15.3l-.635-.544a25 25 0 0 1-3.227-3.105c-.82-1.009-1.138-1.97-.922-2.789.226-.853 1.035-1.575 2.341-2.085a9.8 9.8 0 0 1 3.578-.657c1.505.034 2.997.28 4.433.728 4.762 1.364 7.78 3.293 9.782 6.254z"/><path d="M12.661 51.373a20.65 20.65 0 0 0 9.891 5.145c.474.105.958.163 1.444.174a2.4 2.4 0 0 0 2.464-1.524c.722-1.858-.86-2.757-2.013-3.417l-.097-.055c-.638-.365-1.292-.705-1.945-1.045a48 48 0 0 1-2.193-1.19c-6.743-3.97-9.74-10.428-8.436-18.185C14.25 16.56 27.186 5.919 41.844 6.499c5.152.207 9.68 2.193 12.748 5.59a17.15 17.15 0 0 1 4.159 12.709q-.111 1.261-.402 2.494c-.1.48-.202.96-.28 1.444-.423 2.58.45 4.397 2.277 4.733a3 3 0 0 0 2.345-.509 4.76 4.76 0 0 0 1.732-3.27q.186-1.516.197-3.044.016-.676.047-1.35a22.38 22.38 0 0 0-5.64-16.103 24.4 24.4 0 0 0-17.012-8.131C24.845-.01 8.91 12.272 5.72 29.034c-1.758 9.22.513 16.527 6.941 22.34"/></g><defs><clipPath id="a"><path fill="#fff" d="M.403.602h112.234v154.896H.403z"/></clipPath></defs></svg>
